modules/feathericon/icons/hash.svg

<?xml version="1.0" encoding="UTF-8"?>
<svg width="14px" height="14px" viewBox="0 0 14 14" version="1.1" xmlns="http://www.w3.org/2000/svg" xmlns:xlink="http://www.w3.org/1999/xlink">
    <!-- Generator: sketchtool 48.1 (47250) - http://www.bohemiancoding.com/sketch -->
    <title>hash</title>
    <desc>Created with sketchtool.</desc>
    <defs></defs>
    <g id="shape" stroke="none" stroke-width="1" fill="none" fill-rule="evenodd">
        <g id="hash" fill="#000000">
            <path d="M7.64041941,11.375 L5.02742494,11.375 L4.76531714,12.8968492 C4.63981755,13.6223835 3.97164042,14.1078449 3.26018757,13.9793925 C2.5539278,13.851826 2.08222244,13.1670421 2.20772203,12.4353066 L2.39041941,11.375 L1.30645931,11.375 C0.584921756,11.375 0,10.7924274 0,10.0625 C0,9.33762627 0.580900116,8.75 1.30645931,8.75 L2.84272315,8.75 L3.37041084,5.6875 L2.18145931,5.6875 C1.45992176,5.6875 0.875,5.10492742 0.875,4.375 C0.875,3.65012627 1.45590012,3.0625 2.18145931,3.0625 L3.82271458,3.0625 L4.16032256,1.10315082 C4.28495664,0.377616456 4.95399929,-0.107844875 5.66545214,0.0206074845 C6.37084639,0.148173966 6.84341727,0.833843802 6.71705216,1.56469343 L6.45908522,3.0625 L9.07271458,3.0625 L9.41032256,1.10315082 C9.53495664,0.377616456 10.2039993,-0.107844875 10.9154521,0.0206074845 C11.6208464,0.148173966 12.0934173,0.833843802 11.9670522,1.56469343 L11.7090852,3.0625 L12.6935407,3.0625 C13.4150782,3.0625 14,3.64507258 14,4.375 C14,5.09987373 13.4190999,5.6875 12.6935407,5.6875 L11.256982,5.6875 L10.7295282,8.75 L11.8185407,8.75 C12.5400782,8.75 13.125,9.33257258 13.125,10.0625 C13.125,10.7873737 12.5440999,11.375 11.8185407,11.375 L10.2774249,11.375 L10.0153171,12.8968492 C9.88981755,13.6223835 9.22164042,14.1078449 8.51018757,13.9793925 C7.8039278,13.851826 7.33222244,13.1670421 7.45772203,12.4353066 L7.64041941,11.375 L7.64041941,11.375 Z M8.09272315,8.75 L5.47952819,8.75 L6.00698198,5.6875 L8.62041084,5.6875 L8.09272315,8.75 L8.09272315,8.75 Z" id="Shape"></path>
        </g>
    </g>
</svg>

<svg width="14" height="14" xmlns="http://www.w3.org/2000/svg"><path d="M7.64 11.375H5.027l-.262 1.522c-.125.725-.793 1.21-1.505 1.082-.706-.127-1.178-.812-1.052-1.544l.182-1.06H1.306A1.306 1.306 0 0 1 0 10.062C0 9.338.58 8.75 1.306 8.75h1.537l.527-3.063H2.181A1.306 1.306 0 0 1 .875 4.375c0-.725.58-1.313 1.306-1.313h1.642l.337-1.959c.125-.725.794-1.21 1.505-1.082.706.127 1.178.813 1.052 1.544L6.46 3.063h2.614l.337-1.96c.125-.725.794-1.21 1.505-1.082.706.127 1.178.813 1.052 1.544l-.258 1.498h.985c.721 0 1.306.582 1.306 1.312 0 .725-.58 1.313-1.306 1.313h-1.437L10.73 8.75h1.089c.721 0 1.306.583 1.306 1.313 0 .724-.58 1.312-1.306 1.312h-1.542l-.262 1.522c-.125.725-.793 1.21-1.505 1.082-.706-.127-1.178-.812-1.052-1.544l.182-1.06zm.453-2.625H5.48l.527-3.063H8.62L8.093 8.75z" fill="#000" fill-rule="evenodd"/></svg>
